_site/images/homepage/union.svg

<svg fill="none" height="30" viewBox="0 0 30 30" width="30" xmlns="http://www.w3.org/2000/svg"><rect fill="#65a2fd" height="30" rx="7" width="30"/><path clip-rule="evenodd" d="m15.4275 5.56143-.1057-.32673c-.1013-.31293-.5414-.31293-.6425 0l-.1056.32673c-.0454.13971-.175.23453-.3214.23453h-.3416c-.3273 0-.4632.42089-.1985.61426l.2765.2019c.1183.0865.1679.23979.1226.37972l-.1056.32651c-.1011.31293.2551.57309.5198.37972l.2765-.2019c.1185-.0865.2789-.0865.3972 0l.2765.2019c.2647.19337.6209-.06679.5198-.37972l-.1057-.32651c-.0453-.13993.0044-.29322.1227-.37972l.2765-.2019c.2649-.19337.1287-.61426-.1985-.61426h-.3416c-.1464 0-.2761-.0946-.3214-.23453zm4.0508 1.10098-.1057-.32651c-.1011-.31293-.5414-.31293-.6425 0l-.1057.32651c-.0453.13993-.1749.23475-.3213.23475h-.3417c-.3272 0-.4632.4209-.1984.61426l.2764.20191c.1183.08649.168.23978.1227.37972l-.1057.32673c-.1011.31293.2552.57308.5199.37972l.2765-.20191c.1185-.0865.2788-.0865.3972 0l.2764.20191c.2648.19336.621-.06679.5199-.37972l-.1057-.32673c-.0453-.13994.0042-.29323.1227-.37972l.2765-.20191c.2649-.19336.1287-.61426-.1985-.61426h-.3416c-.1465 0-.2763-.09482-.3214-.23475zm-8.2756-.32651.1057.32651c.0453.13993.1749.23475.3213.23475h.3417c.3272 0 .4634.4209.1984.61426l-.2764.20191c-.1183.08649-.168.23978-.1227.37972l.1057.32673c.1011.31293-.2552.57308-.5199.37972l-.2765-.20191c-.1183-.0865-.2786-.0865-.3972 0l-.2764.20191c-.2648.19336-.62098-.06679-.51989-.37972l.10567-.32673c.04532-.13994-.00436-.29323-.12266-.37972l-.27649-.20191c-.26471-.19336-.12876-.61426.19849-.61426h.34158c.1465 0 .2761-.09482.3214-.23475l.1057-.32651c.1011-.31293.5414-.31293.6425 0zm-3.40215 3.59003-.10567-.3265c-.10131-.31293-.54164-.31293-.64251 0l-.10567.3265c-.04532.13997-.17495.23477-.32137.23477h-.34162c-.32725 0-.46321.4209-.19849.6142l.27648.2019c.11831.0865.16799.2398.12267.3798l-.10567.3265c-.10109.3129.25513.5731.51985.3797l.27648-.2019c.11853-.0865.27888-.0865.39719 0l.27648.2019c.26472.1934.62094-.0668.51985-.3797l-.10567-.3265c-.04532-.14.00436-.2933.12267-.3798l.27648-.2019c.26493-.1933.12876-.6142-.19848-.6142h-.34163c-.14641 0-.27605-.0948-.32137-.23477zm15.10915-.3265.1057.3265c.0453.13997.1749.23477.3214.23477h.3416c.3272 0 .4634.4209.1985.6142l-.2765.2019c-.1183.0865-.168.2398-.1227.3798l.1057.3265c.1011.3129-.2551.5731-.5199.3797l-.2764-.2019c-.1186-.0865-.2787-.0865-.3972 0l-.2765.2019c-.2647.1934-.621-.0668-.5199-.3797l.1057-.3265c.0453-.14-.0043-.2933-.1227-.3798l-.2764-.2019c-.2648-.1933-.1288-.6142.1985-.6142h.3416c.1464 0 .276-.0948.3213-.23477l.1057-.3265c.1011-.31293.5414-.31293.6425 0zm-7.4822 13.19677-.1057-.3267c-.1013-.3129-.5414-.3129-.6425 0l-.1056.3267c-.0454.14-.175.2346-.3214.2346h-.3416c-.3273 0-.4632.4209-.1985.6142l.2765.2019c.1183.0865.1679.2398.1226.3798l-.1056.3265c-.1011.3129.2551.5731.5198.3797l.2765-.2019c.1185-.0865.2789-.0865.3972 0l.2765.2019c.2647.1934.6209-.0668.5198-.3797l-.1057-.3265c-.0453-.14.0044-.2933.1227-.3798l.2765-.2019c.2649-.1933.1287-.6142-.1985-.6142h-.3416c-.1464 0-.2761-.0946-.3214-.2346zm-4.4865-1.4991.1056.3265c.0454.14.175.2346.3214.2346h.3416c.3273 0 .4635.4209.1985.6142l-.2765.2019c-.1183.0865-.1679.2398-.1226.3797l.1056.3268c.1011.3129-.2551.5731-.5198.3797l-.2765-.2019c-.1185-.0865-.2786-.0865-.3972 0l-.2765.2019c-.26468.1934-.6209-.0668-.51981-.3797l.10567-.3268c.04532-.1399-.00435-.2932-.12266-.3797l-.27648-.2019c-.26472-.1933-.12877-.6142.19848-.6142h.34163c.14637 0 .27607-.0949.32137-.2346l.1057-.3265c.1011-.3129.5414-.3129.6425 0zm8.9396.3265-.1056-.3265c-.1011-.3129-.5415-.3129-.6426 0l-.1056.3265c-.0453.1397-.175.2346-.3214.2346h-.3416c-.3273 0-.4632.4209-.1985.6142l.2765.2019c.1183.0865.168.2398.1226.3797l-.1056.3268c-.1011.3129.2551.5731.5198.3797l.2765-.2019c.1185-.0865.2787-.0865.3972 0l.2765.2019c.2647.1934.6209-.0668.5198-.3797l-.1056-.3268c-.0454-.1399.0041-.2932.1226-.3797l.2765-.2019c.2649-.1933.1288-.6142-.1985-.6142h-.3416c-.1464 0-.2761-.0946-.3214-.2346zm4.0135-7.7715.1057.3265c.0453.1399.1749.2345.3213.2345h.3417c.3272 0 .4634.4209.1984.6143l-.2764.2019c-.1186.0865-.168.2398-.1227.3797l.1057.3268c.1011.3129-.2552.573-.5199.3797l-.2765-.2019c-.1185-.0865-.2786-.0865-.3971 0l-.2765.2019c-.2648.1933-.621-.0668-.5199-.3797l.1057-.3268c.0453-.1399-.0044-.2932-.1227-.3797l-.2765-.2019c-.2647-.1934-.1287-.6143.1985-.6143h.3417c.1464 0 .276-.0948.3213-.2345l.1057-.3265c.1009-.3129.5414-.3129.6425 0zm-1.1678 4.5522-.1056-.3268c-.1011-.3129-.5417-.3129-.6426 0l-.1056.3268c-.0453.1397-.175.2345-.3214.2345h-.3416c-.3273 0-.4632.4209-.1985.6143l.2765.2019c.1183.0865.168.2398.1227.3797l-.1057.3265c-.1011.3129.2551.5731.5198.3797l.2765-.2019c.1185-.0865.2787-.0865.3972 0l.2765.2019c.2647.1934.6209-.0668.5198-.3797l-.1056-.3265c-.0454-.1399.0041-.2932.1226-.3797l.2765-.2019c.2649-.1934.1288-.6143-.1985-.6143h-.3416c-.1464 0-.276-.0946-.3214-.2345zm-14.66228-.3268.10567.3268c.04532.1399.17496.2345.32137.2345h.34163c.32724 0 .46342.4209.19848.6143l-.27648.2019c-.11831.0865-.16798.2398-.12267.3797l.10567.3265c.1011.3129-.25513.5731-.51985.3797l-.27648-.2019c-.11831-.0865-.27866-.0865-.39719 0l-.27648.2019c-.26472.1934-.62094-.0668-.51985-.3797l.10567-.3265c.04532-.1399-.00436-.2932-.12266-.3797l-.27649-.2019c-.26472-.1934-.12876-.6143.19849-.6143h.34163c.14641 0 .27604-.0948.32136-.2345l.10567-.3268c.10109-.3129.54142-.3129.64251 0zm-1.20878-3.8989-.10567-.3265c-.10109-.3129-.54164-.3129-.64251 0l-.10567.3265c-.04532.1397-.17496.2345-.32137.2345h-.34163c-.32725 0-.4632.4209-.19848.6143l.27648.2019c.11831.0865.16798.2398.12267.3797l-.10567.3268c-.1011.3129.25513.573.51985.3797l.27648-.2019c.11852-.0865.27866-.0865.39719 0l.27648.2019c.26472.1933.62094-.0668.51985-.3797l-.10567-.3268c-.04532-.1399.00414-.2932.12266-.3797l.27649-.2019c.26493-.1934.12876-.6143-.19849-.6143h-.34163c-.14641 0-.27626-.0946-.32136-.2345z" fill="#fff" fill-rule="evenodd"/></svg>

<svg width="30" height="30" viewBox="0 0 30 30" fill="none" xmlns="http://www.w3.org/2000/svg">
<rect width="30" height="30" rx="7" fill="#65A2FD"/>
<path fill-rule="evenodd" clip-rule="evenodd" d="M15.4275 5.56143L15.3218 5.2347C15.2205 4.92177 14.7804 4.92177 14.6793 5.2347L14.5737 5.56143C14.5283 5.70114 14.3987 5.79596 14.2523 5.79596H13.9107C13.5834 5.79596 13.4475 6.21685 13.7122 6.41022L13.9887 6.61212C14.107 6.69862 14.1566 6.85191 14.1113 6.99184L14.0057 7.31835C13.9046 7.63128 14.2608 7.89144 14.5255 7.69807L14.802 7.49617C14.9205 7.40967 15.0809 7.40967 15.1992 7.49617L15.4757 7.69807C15.7404 7.89144 16.0966 7.63128 15.9955 7.31835L15.8898 6.99184C15.8445 6.85191 15.8942 6.69862 16.0125 6.61212L16.289 6.41022C16.5539 6.21685 16.4177 5.79596 16.0905 5.79596H15.7489C15.6025 5.79596 15.4728 5.70136 15.4275 5.56143ZM19.4783 6.66241L19.3726 6.3359C19.2715 6.02297 18.8312 6.02297 18.7301 6.3359L18.6244 6.66241C18.5791 6.80234 18.4495 6.89716 18.3031 6.89716H17.9614C17.6342 6.89716 17.4982 7.31806 17.763 7.51142L18.0394 7.71333C18.1577 7.79982 18.2074 7.95311 18.1621 8.09305L18.0564 8.41978C17.9553 8.73271 18.3116 8.99286 18.5763 8.7995L18.8528 8.59759C18.9713 8.51109 19.1316 8.51109 19.25 8.59759L19.5264 8.7995C19.7912 8.99286 20.1474 8.73271 20.0463 8.41978L19.9406 8.09305C19.8953 7.95311 19.9448 7.79982 20.0633 7.71333L20.3398 7.51142C20.6047 7.31806 20.4685 6.89716 20.1413 6.89716H19.7997C19.6532 6.89716 19.5234 6.80234 19.4783 6.66241ZM11.2027 6.3359L11.3084 6.66241C11.3537 6.80234 11.4833 6.89716 11.6297 6.89716H11.9714C12.2986 6.89716 12.4348 7.31806 12.1698 7.51142L11.8934 7.71333C11.7751 7.79982 11.7254 7.95311 11.7707 8.09305L11.8764 8.41978C11.9775 8.73271 11.6212 8.99286 11.3565 8.7995L11.08 8.59759C10.9617 8.51109 10.8014 8.51109 10.6828 8.59759L10.4064 8.7995C10.1416 8.99286 9.78542 8.73271 9.88651 8.41978L9.99218 8.09305C10.0375 7.95311 9.98782 7.79982 9.86952 7.71333L9.59303 7.51142C9.32832 7.31806 9.46427 6.89716 9.79152 6.89716H10.1331C10.2796 6.89716 10.4092 6.80234 10.4545 6.66241L10.5602 6.3359C10.6613 6.02297 11.1016 6.02297 11.2027 6.3359ZM7.80055 9.92593L7.69488 9.59943C7.59357 9.2865 7.15324 9.2865 7.05237 9.59943L6.9467 9.92593C6.90138 10.0659 6.77175 10.1607 6.62533 10.1607H6.28371C5.95646 10.1607 5.8205 10.5816 6.08522 10.7749L6.3617 10.9768C6.48001 11.0633 6.52969 11.2166 6.48437 11.3566L6.3787 11.6831C6.27761 11.996 6.63383 12.2562 6.89855 12.0628L7.17503 11.8609C7.29356 11.7744 7.45391 11.7744 7.57222 11.8609L7.8487 12.0628C8.11342 12.2562 8.46964 11.996 8.36855 11.6831L8.26288 11.3566C8.21756 11.2166 8.26724 11.0633 8.38555 10.9768L8.66203 10.7749C8.92696 10.5816 8.79079 10.1607 8.46355 10.1607H8.12192C7.97551 10.1607 7.84587 10.0659 7.80055 9.92593ZM22.9097 9.59943L23.0154 9.92593C23.0607 10.0659 23.1903 10.1607 23.3368 10.1607H23.6784C24.0056 10.1607 24.1418 10.5816 23.8769 10.7749L23.6004 10.9768C23.4821 11.0633 23.4324 11.2166 23.4777 11.3566L23.5834 11.6831C23.6845 11.996 23.3283 12.2562 23.0635 12.0628L22.7871 11.8609C22.6685 11.7744 22.5084 11.7744 22.3899 11.8609L22.1134 12.0628C21.8487 12.2562 21.4924 11.996 21.5935 11.6831L21.6992 11.3566C21.7445 11.2166 21.6949 11.0633 21.5765 10.9768L21.3001 10.7749C21.0353 10.5816 21.1713 10.1607 21.4986 10.1607H21.8402C21.9866 10.1607 22.1162 10.0659 22.1615 9.92593L22.2672 9.59943C22.3683 9.2865 22.8086 9.2865 22.9097 9.59943ZM15.4275 22.7962L15.3218 22.4695C15.2205 22.1566 14.7804 22.1566 14.6793 22.4695L14.5737 22.7962C14.5283 22.9362 14.3987 23.0308 14.2523 23.0308H13.9107C13.5834 23.0308 13.4475 23.4517 13.7122 23.645L13.9887 23.8469C14.107 23.9334 14.1566 24.0867 14.1113 24.2267L14.0057 24.5532C13.9046 24.8661 14.2608 25.1263 14.5255 24.9329L14.802 24.731C14.9205 24.6445 15.0809 24.6445 15.1992 24.731L15.4757 24.9329C15.7404 25.1263 16.0966 24.8661 15.9955 24.5532L15.8898 24.2267C15.8445 24.0867 15.8942 23.9334 16.0125 23.8469L16.289 23.645C16.5539 23.4517 16.4177 23.0308 16.0905 23.0308H15.7489C15.6025 23.0308 15.4728 22.9362 15.4275 22.7962ZM10.941 21.2971L11.0466 21.6236C11.092 21.7636 11.2216 21.8582 11.368 21.8582H11.7096C12.0369 21.8582 12.1731 22.2791 11.9081 22.4724L11.6316 22.6743C11.5133 22.7608 11.4637 22.9141 11.509 23.054L11.6146 23.3808C11.7157 23.6937 11.3595 23.9539 11.0948 23.7605L10.8183 23.5586C10.6998 23.4721 10.5397 23.4721 10.4211 23.5586L10.1446 23.7605C9.87992 23.9539 9.5237 23.6937 9.62479 23.3808L9.73046 23.054C9.77578 22.9141 9.72611 22.7608 9.6078 22.6743L9.33132 22.4724C9.0666 22.2791 9.20255 21.8582 9.5298 21.8582H9.87143C10.0178 21.8582 10.1475 21.7633 10.1928 21.6236L10.2985 21.2971C10.3996 20.9842 10.8399 20.9842 10.941 21.2971ZM19.8806 21.6236L19.775 21.2971C19.6739 20.9842 19.2335 20.9842 19.1324 21.2971L19.0268 21.6236C18.9815 21.7633 18.8518 21.8582 18.7054 21.8582H18.3638C18.0365 21.8582 17.9006 22.2791 18.1653 22.4724L18.4418 22.6743C18.5601 22.7608 18.6098 22.9141 18.5644 23.054L18.4588 23.3808C18.3577 23.6937 18.7139 23.9539 18.9786 23.7605L19.2551 23.5586C19.3736 23.4721 19.5338 23.4721 19.6523 23.5586L19.9288 23.7605C20.1935 23.9539 20.5497 23.6937 20.4486 23.3808L20.343 23.054C20.2976 22.9141 20.3471 22.7608 20.4656 22.6743L20.7421 22.4724C21.007 22.2791 20.8709 21.8582 20.5436 21.8582H20.202C20.0556 21.8582 19.9259 21.7636 19.8806 21.6236ZM23.8941 13.8521L23.9998 14.1786C24.0451 14.3185 24.1747 14.4131 24.3211 14.4131H24.6628C24.99 14.4131 25.1262 14.834 24.8612 15.0274L24.5848 15.2293C24.4662 15.3158 24.4168 15.4691 24.4621 15.609L24.5678 15.9358C24.6689 16.2487 24.3126 16.5088 24.0479 16.3155L23.7714 16.1136C23.6529 16.0271 23.4928 16.0271 23.3743 16.1136L23.0978 16.3155C22.833 16.5088 22.4768 16.2487 22.5779 15.9358L22.6836 15.609C22.7289 15.4691 22.6792 15.3158 22.5609 15.2293L22.2844 15.0274C22.0197 14.834 22.1557 14.4131 22.4829 14.4131H22.8246C22.971 14.4131 23.1006 14.3183 23.1459 14.1786L23.2516 13.8521C23.3525 13.5392 23.793 13.5392 23.8941 13.8521ZM22.7263 18.4043L22.6207 18.0775C22.5196 17.7646 22.079 17.7646 21.9781 18.0775L21.8725 18.4043C21.8272 18.544 21.6975 18.6388 21.5511 18.6388H21.2095C20.8822 18.6388 20.7463 19.0597 21.011 19.2531L21.2875 19.455C21.4058 19.5415 21.4555 19.6948 21.4102 19.8347L21.3045 20.1612C21.2034 20.4741 21.5596 20.7343 21.8243 20.5409L22.1008 20.339C22.2193 20.2525 22.3795 20.2525 22.498 20.339L22.7745 20.5409C23.0392 20.7343 23.3954 20.4741 23.2943 20.1612L23.1887 19.8347C23.1433 19.6948 23.1928 19.5415 23.3113 19.455L23.5878 19.2531C23.8527 19.0597 23.7166 18.6388 23.3893 18.6388H23.0477C22.9013 18.6388 22.7717 18.5442 22.7263 18.4043ZM8.06402 18.0775L8.16969 18.4043C8.21501 18.5442 8.34465 18.6388 8.49106 18.6388H8.83269C9.15993 18.6388 9.29611 19.0597 9.03117 19.2531L8.75469 19.455C8.63638 19.5415 8.58671 19.6948 8.63202 19.8347L8.73769 20.1612C8.83879 20.4741 8.48256 20.7343 8.21784 20.5409L7.94136 20.339C7.82305 20.2525 7.6627 20.2525 7.54417 20.339L7.26769 20.5409C7.00297 20.7343 6.64675 20.4741 6.74784 20.1612L6.85351 19.8347C6.89883 19.6948 6.84915 19.5415 6.73085 19.455L6.45436 19.2531C6.18964 19.0597 6.3256 18.6388 6.65285 18.6388H6.99448C7.14089 18.6388 7.27052 18.544 7.31584 18.4043L7.42151 18.0775C7.5226 17.7646 7.96293 17.7646 8.06402 18.0775ZM6.85524 14.1786L6.74957 13.8521C6.64848 13.5392 6.20793 13.5392 6.10706 13.8521L6.00139 14.1786C5.95607 14.3183 5.82643 14.4131 5.68002 14.4131H5.33839C5.01114 14.4131 4.87519 14.834 5.13991 15.0274L5.41639 15.2293C5.5347 15.3158 5.58437 15.4691 5.53906 15.609L5.43339 15.9358C5.33229 16.2487 5.68852 16.5088 5.95324 16.3155L6.22972 16.1136C6.34824 16.0271 6.50838 16.0271 6.62691 16.1136L6.90339 16.3155C7.16811 16.5088 7.52433 16.2487 7.42324 15.9358L7.31757 15.609C7.27225 15.4691 7.32171 15.3158 7.44023 15.2293L7.71672 15.0274C7.98165 14.834 7.84548 14.4131 7.51823 14.4131H7.1766C7.03019 14.4131 6.90034 14.3185 6.85524 14.1786Z" fill="white"/>
</svg>
